X: 37054
T: Silver Slipper, The
R: slip jig
M: 9/8
K: Dmajor
F2D DDD|F2D DDD|F2A d2A|F2D DDD|D3 F2A|B2G E2G:|
F2D DDD F2D|DDD A2F d2A|F2D DDD F2D|F2A B2G E2A:|
F2A d2D d3|F2A d2A Bcd|F2A d2c ~d3|B2G E2G G2E|
F2A d2D d3|F2A d2A Bcd|e2c d2A F2A|B2G E2G G2E||
F2D ~D3 F2D|~D3 A2F d2A|F2D ~D3 F2D|F2A A2G E2G:|
F2A d2A ~d3|F2A d2A Bcd|F2A d2c d3|B2G E2G F2E|
F2A d2c d3|F2A d2A Bcd|e2z d2A F2A|B2G E2G F2E||
FD ~D2 FD|~D2 AF dA|FD ~D2 FD|FA AG EG:|
FA dA ~d2|FA dA B/c/d|FA dc d2|BG EG FE|
FA dc d2|FA dA B/c/d|ez dA FA|BG EG FE||
FD ~D2|FD~D2|AF dA|FD ~D2|FD FA|AG EG:|

